X: 1
T: Hangover, The
M: 4/4
L: 1/8
R: hornpipe
K: Gmaj
Bc|dg (3gfe dBGF|EGce ~d2 BG|DGBG d^ced|cBA^G A2 Bc|
dg (3gfe dBGF|EGcB cdef|gfgd ecAF|~G2 FA G2:|
|Bc|dg ~g2 bgdc|BDGB ~d2 ^cd|ef (3gfe dBGF|
[1EGcB ~A2 Bc|dg ~g2 bgfg|eA^ce agfe|dgfg ecAF|~G2 FA G2:|
[2EGcB ~A2 DC|B,DGF GBdB|~c2 Ag fgaf|gfgd ecAF|~G2 FA G2||
